X:1
T:Witherspoon, 66.66.88
T:Witherspoon, 66.66.88
T:William Sereno Waith, 1895
T:Public Domain Courtesy of the Cyber Hymnal™
C:William Sereno Waith, 1895
Z:Public Domain
Z:Courtesy of the Cyber Hymnal™
%%score ( 1 2 ) ( 3 4 )
L:1/8
Q:1/4=110
M:4/4
K:Eb
V:1 treble 
V:2 treble 
V:3 bass 
V:4 bass 
V:1
 (GA) | [FB]2 [EA]2 [EG]2 [DF]2 | E6 [DF]2 | (GA) [EB]2 [EA]2 [EG]2 | [DF]6 [EG]2 | %5
 [EA]2 [EB]2 [Ec]2 d2 | [Ee]2 ([Bd][Ac]) [GB]2 [FA]2 | [EG]4 [DF]4 x2 | E6 (G=A) | %9
 [GB]2 [^F=A]2 [GB]2 (Bc) | [Fd]2 [=Ac]2 B2 B2 | [Bc]2 [Ad]2 [Ge]2 [GB]2 | %12
 [EA]2 [EG]2 [EF]2 [Ec]2 | [EG]4 [DF]4 | E6 |] %15
V:2
 E2 | x8 | E6 x2 | E2 x6 | x8 | x6 (GF) | x8 | x10 | E6 E2 | x6 =E2 | x4 B2 B2 | x8 | x8 | x8 | %14
 E6 |] %15
V:3
 [E,B,]2 | [B,,D]2 [C,C]2 [E,B,]2 [A,B,]2 | [G,B,]6 [F,B,]2 | [E,B,]2 [G,,B,]2 [A,,C]2 [E,B,]2 | %4
 [B,,B,]6 B,2 | [C,A,]2 [E,G,]2 [A,C]2 [G,=B,]2 | [C,C]2 [D,F]2 [E,B,]2 [A,C]2 | B,6 z2 A,2 | %8
 [E,G,]6 (B,C) | [D,D]2 [D,D]2 [G,D]2 [G,C]2 | [F,B,]2 [F,E]2 [B,D]2 [A,D]2 | %11
 [G,E]2 [F,F]2 [E,B,]2 [_D,E]2 | [C,E]2 [B,,B,]2 [A,,C]2 [A,,F,]2 | [B,,B,]4 [B,,A,]4 | %14
 [E,,E,G,]6 |] %15
V:4
 x2 | x8 | x8 | x8 | x6 (E,D,) | x8 | x8 | B,4 B,,4 x2 | x6 E,2 | x8 | x8 | x8 | x8 | x8 | x6 |] %15

